X: 37311
T: Skye Boat Song, The
R: waltz
M: 3/4
K: Gmajor
"G"D>E D "G"G2 G|"D"A>B A "D"d3|"G"B>A B "C"E2 E|"D"D3 "D"D3|
"G"D>E D "G"G2 G|"D"A>B A "D"d3|"G"B>A B "C"E2 E|E>D E "G"G3|
"G" G3 "Em"B>G B|B3 "Am"A>E A|A3 "Em"G>E F|"C"G2 F "Am"E3|
"Em"E3 "Em"B>G B|B3 "Am"A>E A|A3 "Em"G>E F|"C"G2 F "Em"E3|
"D"D3 "G"D>E D|"G"G2 G "D"A>B A|"D"d3 "G"B>A B|"C"E2 E "D"D3|
"D"D3 "G"D>E D|"G"G2 G "D"A>B A|"D"d3 "G"B>A B|"C"E2 E E>D E|"G" G3 "G" G3|

